X:1
T:Maid of Athens -- Reel
R:reel
B:Ryan's Mammoth Collection
N: 159
Z: Contributed by Ray Davies,  ray:davies99.freeserve.co.uk
M:C|
L:1/8
K:D
vFAAF GFED | FAAc dABG | FAAF GFGB | AFdF E2D2 |
 FAAF GFED | FAAc dBAG | FAAF GFGB | AFdF E2D2 ::
vfddf geeg | fded cAA2 | fddf geeg | fdec d2d2 |
 fddf geeg | fded cAA2 | FAAF GFGB | AFdF E2D2 :|
